lib/radiotmp/nrk-list--active.svg

<svg xmlns="http://www.w3.org/2000/svg" viewBox="0 0 24 24"><path fill="#000" d="M22 4H2v4h20V4ZM2 10h20v4H2v-4ZM2 16h20v4H2v-4Z"/></svg>

<svg width="24" height="24" viewBox="0 0 24 24" fill="none" xmlns="http://www.w3.org/2000/svg">
<path d="M22 4H2V8H22V4Z" fill="black"/>
<path d="M2 10H22V14H2V10Z" fill="black"/>
<path d="M2 16H22V20H2V16Z" fill="black"/>
</svg>
